X: 4955
T: Brefni O'Reilly
R: reel
M: 4/4
K: Gmajor
|:G2 dG =FDCD|GAcd fgaf|gd (3dcd cAGA|d2AG =FDCD|
G2 dG =FDCD|GAcd fgaf|gbag fage|1 dcAF DGGD:|2 dcAF DGGA||
|:B2 ga fagf|dcBc A=F (3FEF|GABc defg|agfa gfga|
~bggf gfdc|BG (3GFG A=F (3FEF|GABc dgbg|1 fdcA BGGA:|2 fdcA BGG2||

